images/mettalex.svg

<svg height="250" viewBox="0 0 250 250" width="250" xmlns="http://www.w3.org/2000/svg"><g fill="#3f34a7"><path d="m1.738281 0h12.238281c.941407 0 1.703126.882812 1.703126 1.972656v246.054688c0 1.089844-.761719 1.972656-1.703126 1.972656h-12.238281c-.941406 0-1.707031-.882812-1.707031-1.972656v-246.054688c0-1.089844.765625-1.972656 1.707031-1.972656zm0 0"/><path d="m31.027344 26.480469h12.238281c.941406 0 1.707031.882812 1.707031 1.972656v191.125c0 1.085937-.765625 1.96875-1.707031 1.96875h-12.238281c-.941406 0-1.707032-.882813-1.707032-1.96875v-191.125c0-1.089844.765626-1.972656 1.707032-1.972656zm0 0"/><path d="m60.316406 44.957031h12.238282c.941406 0 1.707031.882813 1.707031 1.972657v189.335937c0 1.089844-.765625 1.972656-1.707031 1.972656h-12.238282c-.941406 0-1.703125-.882812-1.703125-1.972656v-189.335937c0-1.089844.761719-1.972657 1.703125-1.972657zm0 0"/><path d="m89.589844 74.375h12.238281c.941406 0 1.707031.882812 1.707031 1.972656v153.019532c0 1.089843-.765625 1.972656-1.707031 1.972656h-12.238281c-.941406 0-1.703125-.882813-1.703125-1.972656v-153.019532c0-1.089844.761719-1.972656 1.703125-1.972656zm0 0"/><path d="m118.878906 100.878906h12.242188c.941406 0 1.703125.882813 1.703125 1.96875v144.195313c0 1.089843-.761719 1.972656-1.703125 1.972656h-12.242188c-.941406 0-1.703125-.882813-1.703125-1.972656v-144.195313c0-1.085937.761719-1.96875 1.703125-1.96875zm0 0"/><path d="m236.023438 0h12.238281c.941406 0 1.707031.882812 1.707031 1.972656v246.054688c0 1.089844-.765625 1.972656-1.707031 1.972656h-12.238281c-.941407 0-1.703126-.882812-1.703126-1.972656v-246.054688c0-1.089844.761719-1.972656 1.703126-1.972656zm0 0"/><path d="m206.734375 26.480469h12.238281c.941406 0 1.707032.882812 1.707032 1.972656v191.125c0 1.085937-.765626 1.96875-1.707032 1.96875h-12.238281c-.941406 0-1.707031-.882813-1.707031-1.96875v-191.125c0-1.089844.765625-1.972656 1.707031-1.972656zm0 0"/><path d="m177.460938 44.957031h12.238281c.941406 0 1.707031.882813 1.707031 1.972657v189.335937c0 1.089844-.765625 1.972656-1.707031 1.972656h-12.238281c-.941407 0-1.703126-.882812-1.703126-1.972656v-189.335937c0-1.089844.761719-1.972657 1.703126-1.972657zm0 0"/><path d="m148.171875 74.394531h12.238281c.941406 0 1.703125.882813 1.703125 1.972657v153.023437c0 1.085937-.761719 1.96875-1.703125 1.96875h-12.238281c-.941406 0-1.707031-.882813-1.707031-1.96875v-153.023437c0-1.089844.765625-1.972657 1.707031-1.972657zm0 0"/></g></svg>

<svg xmlns="http://www.w3.org/2000/svg" xmlns:xlink="http://www.w3.org/1999/xlink" width="250px" height="250px" viewBox="0 0 250 250" version="1.1">
<g id="surface1">
<path style=" stroke:none;fill-rule:nonzero;fill:rgb(24.705882%,20.392157%,65.490198%);fill-opacity:1;" d="M 1.738281 0 L 13.976562 0 C 14.917969 0 15.679688 0.882812 15.679688 1.972656 L 15.679688 248.027344 C 15.679688 249.117188 14.917969 250 13.976562 250 L 1.738281 250 C 0.796875 250 0.03125 249.117188 0.03125 248.027344 L 0.03125 1.972656 C 0.03125 0.882812 0.796875 0 1.738281 0 Z M 1.738281 0 "/>
<path style=" stroke:none;fill-rule:nonzero;fill:rgb(24.705882%,20.392157%,65.490198%);fill-opacity:1;" d="M 31.027344 26.480469 L 43.265625 26.480469 C 44.207031 26.480469 44.972656 27.363281 44.972656 28.453125 L 44.972656 219.578125 C 44.972656 220.664062 44.207031 221.546875 43.265625 221.546875 L 31.027344 221.546875 C 30.085938 221.546875 29.320312 220.664062 29.320312 219.578125 L 29.320312 28.453125 C 29.320312 27.363281 30.085938 26.480469 31.027344 26.480469 Z M 31.027344 26.480469 "/>
<path style=" stroke:none;fill-rule:nonzero;fill:rgb(24.705882%,20.392157%,65.490198%);fill-opacity:1;" d="M 60.316406 44.957031 L 72.554688 44.957031 C 73.496094 44.957031 74.261719 45.839844 74.261719 46.929688 L 74.261719 236.265625 C 74.261719 237.355469 73.496094 238.238281 72.554688 238.238281 L 60.316406 238.238281 C 59.375 238.238281 58.613281 237.355469 58.613281 236.265625 L 58.613281 46.929688 C 58.613281 45.839844 59.375 44.957031 60.316406 44.957031 Z M 60.316406 44.957031 "/>
<path style=" stroke:none;fill-rule:nonzero;fill:rgb(24.705882%,20.392157%,65.490198%);fill-opacity:1;" d="M 89.589844 74.375 L 101.828125 74.375 C 102.769531 74.375 103.535156 75.257812 103.535156 76.347656 L 103.535156 229.367188 C 103.535156 230.457031 102.769531 231.339844 101.828125 231.339844 L 89.589844 231.339844 C 88.648438 231.339844 87.886719 230.457031 87.886719 229.367188 L 87.886719 76.347656 C 87.886719 75.257812 88.648438 74.375 89.589844 74.375 Z M 89.589844 74.375 "/>
<path style=" stroke:none;fill-rule:nonzero;fill:rgb(24.705882%,20.392157%,65.490198%);fill-opacity:1;" d="M 118.878906 100.878906 L 131.121094 100.878906 C 132.0625 100.878906 132.824219 101.761719 132.824219 102.847656 L 132.824219 247.042969 C 132.824219 248.132812 132.0625 249.015625 131.121094 249.015625 L 118.878906 249.015625 C 117.9375 249.015625 117.175781 248.132812 117.175781 247.042969 L 117.175781 102.847656 C 117.175781 101.761719 117.9375 100.878906 118.878906 100.878906 Z M 118.878906 100.878906 "/>
<path style=" stroke:none;fill-rule:nonzero;fill:rgb(24.705882%,20.392157%,65.490198%);fill-opacity:1;" d="M 236.023438 0 L 248.261719 0 C 249.203125 0 249.96875 0.882812 249.96875 1.972656 L 249.96875 248.027344 C 249.96875 249.117188 249.203125 250 248.261719 250 L 236.023438 250 C 235.082031 250 234.320312 249.117188 234.320312 248.027344 L 234.320312 1.972656 C 234.320312 0.882812 235.082031 0 236.023438 0 Z M 236.023438 0 "/>
<path style=" stroke:none;fill-rule:nonzero;fill:rgb(24.705882%,20.392157%,65.490198%);fill-opacity:1;" d="M 206.734375 26.480469 L 218.972656 26.480469 C 219.914062 26.480469 220.679688 27.363281 220.679688 28.453125 L 220.679688 219.578125 C 220.679688 220.664062 219.914062 221.546875 218.972656 221.546875 L 206.734375 221.546875 C 205.792969 221.546875 205.027344 220.664062 205.027344 219.578125 L 205.027344 28.453125 C 205.027344 27.363281 205.792969 26.480469 206.734375 26.480469 Z M 206.734375 26.480469 "/>
<path style=" stroke:none;fill-rule:nonzero;fill:rgb(24.705882%,20.392157%,65.490198%);fill-opacity:1;" d="M 177.460938 44.957031 L 189.699219 44.957031 C 190.640625 44.957031 191.40625 45.839844 191.40625 46.929688 L 191.40625 236.265625 C 191.40625 237.355469 190.640625 238.238281 189.699219 238.238281 L 177.460938 238.238281 C 176.519531 238.238281 175.757812 237.355469 175.757812 236.265625 L 175.757812 46.929688 C 175.757812 45.839844 176.519531 44.957031 177.460938 44.957031 Z M 177.460938 44.957031 "/>
<path style=" stroke:none;fill-rule:nonzero;fill:rgb(24.705882%,20.392157%,65.490198%);fill-opacity:1;" d="M 148.171875 74.394531 L 160.410156 74.394531 C 161.351562 74.394531 162.113281 75.277344 162.113281 76.367188 L 162.113281 229.390625 C 162.113281 230.476562 161.351562 231.359375 160.410156 231.359375 L 148.171875 231.359375 C 147.230469 231.359375 146.464844 230.476562 146.464844 229.390625 L 146.464844 76.367188 C 146.464844 75.277344 147.230469 74.394531 148.171875 74.394531 Z M 148.171875 74.394531 "/>
</g>
</svg>
